src/images/global/icons/utility/lock.svg

<?xml version="1.0" encoding="UTF-8"?>
<svg width="48px" height="48px" viewBox="0 0 48 48" version="1.1" xmlns="http://www.w3.org/2000/svg" xmlns:xlink="http://www.w3.org/1999/xlink">
    <!-- Generator: Sketch 46.2 (44496) - http://www.bohemiancoding.com/sketch -->
    <title>icon/Utility/lock</title>
    <desc>Created with Sketch.</desc>
    <defs>
        <path d="M17,10 L18.0092049,10 C19.1086907,10 20,10.8945138 20,11.9940603 L20,24.0059397 C20,25.1072288 19.1017876,26 18.0092049,26 L1.99079514,26 C0.891309342,26 0,25.1054862 0,24.0059397 L0,11.9940603 C0,10.8927712 0.898212381,10 1.99079514,10 L3,10 L3,7.00631082 C3,3.1368322 6.14187327,0 10,0 C13.8659932,0 17,3.13758087 17,7.00631082 L17,10 Z M14,10 L14,7.00631082 C14,4.79352216 12.2082256,3 10,3 C7.79609473,3 6,4.7963196 6,7.00631082 L6,10 L14,10 Z" id="path-1"></path>
    </defs>
    <g id="Symbols" stroke="none" stroke-width="1" fill="none" fill-rule="evenodd">
        <g id="icon/Utility/lock">
            <g id="Icon" transform="translate(14.000000, 11.000000)">
                <mask id="mask-2" fill="white">
                    <use xlink:href="#path-1"></use>
                </mask>
                <use id="Mask" fill="#384048" xlink:href="#path-1"></use>
                <g id="Color/Grayscale/Night-Sky" mask="url(#mask-2)" fill="#111111">
                    <g transform="translate(-14.000000, -11.000000)" id="Swatch">
                        <rect x="0" y="0" width="48" height="48"></rect>
                    </g>
                </g>
            </g>
        </g>
    </g>
</svg>

<?xml version="1.0" encoding="utf-8"?>
<!-- Generator: Adobe Illustrator 21.0.2, SVG Export Plug-In . SVG Version: 6.00 Build 0)  -->
<svg version="1.1" id="icon_x2F_Utility_x2F_lock-Layer_1" xmlns="http://www.w3.org/2000/svg" xmlns:xlink="http://www.w3.org/1999/xlink" x="0px" y="0px"
	 viewBox="0 0 48 48" style="enable-background:new 0 0 48 48;" xml:space="preserve">
<title>icon/Utility/lock</title>
<desc>Created with Sketch.</desc>
<g id="icon_x2F_Utility_x2F_lock-Symbols">
	<g id="icon_x2F_Utility_x2F_lock">
		<g id="icon_x2F_Utility_x2F_lock-Icon" transform="translate(14.000000, 11.000000)">
			<g id="icon_x2F_Utility_x2F_lock-Mask">
				<path id="icon_x2F_Utility_x2F_lock-path-1_1_" style="fill:#384048;" d="M17,10h1c1.1,0,2,0.9,2,2v12c0,1.1-0.9,2-2,2H2c-1.1,0-2-0.9-2-2V12
					c0-1.1,0.9-2,2-2h1V7c0-3.9,3.1-7,7-7c3.9,0,7,3.1,7,7V10z M14,10V7c0-2.2-1.8-4-4-4C7.8,3,6,4.8,6,7v3H14z"/>
			</g>
			<defs>
				<filter id="icon_x2F_Utility_x2F_lock-Adobe_OpacityMaskFilter" filterUnits="userSpaceOnUse" x="-14" y="-11" width="48" height="48">
					<feColorMatrix  type="matrix" values="1 0 0 0 0  0 1 0 0 0  0 0 1 0 0  0 0 0 1 0"/>
				</filter>
			</defs>
			<mask maskUnits="userSpaceOnUse" x="-14" y="-11" width="48" height="48" id="icon_x2F_Utility_x2F_lock-mask-2">
				<g style="filter:url(#icon_x2F_Utility_x2F_lock-Adobe_OpacityMaskFilter);">
					<path id="icon_x2F_Utility_x2F_lock-path-1" style="fill:#FFFFFF;" d="M17,10h1c1.1,0,2,0.9,2,2v12c0,1.1-0.9,2-2,2H2c-1.1,0-2-0.9-2-2V12
						c0-1.1,0.9-2,2-2h1V7c0-3.9,3.1-7,7-7c3.9,0,7,3.1,7,7V10z M14,10V7c0-2.2-1.8-4-4-4C7.8,3,6,4.8,6,7v3H14z"/>
				</g>
			</mask>
			<g id="icon_x2F_Utility_x2F_lock-Color_x2F_Grayscale_x2F_Night-Sky" style="mask:url(#icon_x2F_Utility_x2F_lock-mask-2);">
				<g id="icon_x2F_Utility_x2F_lock-Swatch" transform="translate(-14.000000, -11.000000)">
					<rect style="fill:#111111;" width="48" height="48"/>
				</g>
			</g>
		</g>
	</g>
</g>
</svg>
